material/.icons/material/hand-peace.svg

<svg xmlns="http://www.w3.org/2000/svg" viewBox="0 0 24 24"><path d="M7 19h8v3H7v-3m9.15-7l-3.18-1.66a.49.49 0 00-.37.16l-.3.31.59 2.42-.98.24-1.19-4.97-1.47.68 1.04 4.29-.97.23-1-4.11-.47.21c-.5.2-.85.73-.85 1.34v4.36c0 .8.73 1.5 1.5 1.5H15c.39 0 .74-.16 1-.43l.5-.41s.5-.38.5-.8V13.7s0-1.14-.85-1.7m.79-11c-.54-.09-1.07.25-1.18.8l-1.07 6.17c-.22-.03-.31-.11-.61-.14l-.43.05-1.24-6.08a1.02 1.02 0 00-1.17-.8c-.55.13-.9.66-.79 1.2l1.2 5.91.35 1.56c.28-.2.61-.33.97-.33h.34l3 1.61 1.41-8.75c.11-.54-.22-1.07-.78-1.2z"/></svg>

<?xml version="1.0" encoding="UTF-8"?><!DOCTYPE svg PUBLIC "-//W3C//DTD SVG 1.1//EN" "http://www.w3.org/Graphics/SVG/1.1/DTD/svg11.dtd"><svg xmlns="http://www.w3.org/2000/svg" xmlns:xlink="http://www.w3.org/1999/xlink" version="1.1" id="mdi-hand-peace" width="24" height="24" viewBox="0 0 24 24"><path d="M7,19H15V22H7V19M16.15,12V12L12.97,10.34C12.82,10.34 12.69,10.4 12.6,10.5L12.3,10.81L12.89,13.23L11.91,13.47L10.72,8.5L9.25,9.18L10.29,13.47L9.32,13.7L8.32,9.59L7.85,9.8C7.35,10 7,10.53 7,11.14V15.5C7,16.3 7.73,17 8.5,17H15C15.39,17 15.74,16.84 16,16.57L16.5,16.16C16.5,16.16 17,15.78 17,15.36V13.7C17,13.7 17,12.56 16.15,12M16.94,1C16.4,0.91 15.87,1.25 15.76,1.8L14.69,7.97C14.47,7.94 14.38,7.86 14.08,7.83L13.65,7.88L12.41,1.8C12.3,1.26 11.78,0.91 11.24,1C10.69,1.13 10.34,1.66 10.45,2.2L11.65,8.11V8.11L12,9.67C12.28,9.47 12.61,9.34 12.97,9.34H13.31L16.31,10.95L17.72,2.2C17.83,1.66 17.5,1.13 16.94,1Z" /></svg>
